icon-themes/sifr_svg/cmd/lc_morphing.svg

<svg viewBox="0 0 24 24" xmlns="http://www.w3.org/2000/svg"><path d="m16.5 2a5.5 5.5 0 0 0 -5.472656 5h-2.027344c-1.662 0-3 1.338-3 3v1h-4v11h12v-4h1c1.662 0 3-1.338 3-3v-2.214844a5.5 5.5 0 0 0 4-5.285156 5.5 5.5 0 0 0 -5.5-5.5zm0 2a3.5 3.5 0 0 1 3.5 3.5 3.5 3.5 0 0 1 -2 3.158203v-.658203c0-1.662-1.338-3-3-3h-1.958984a3.5 3.5 0 0 1 3.458984-3zm-7.5 5h6c.554 0 1 .446 1 1v5c0 .554-.446 1-1 1h-1v-5h-6v-1c0-.554.446-1 1-1zm-5 4h8v7h-8z" fill="#555753"/></svg>

<svg xmlns="http://www.w3.org/2000/svg" viewBox="0 0 24 24">
  <path
     style="fill:#555753"
     d="M 16.5 2 A 5.5 5.5 0 0 0 11.027344 7 L 9 7 C 7.338 7 6 8.338 6 10 L 6 11 L 2 11 L 2 22 L 14 22 L 14 18 L 15 18 C 16.662 18 18 16.662 18 15 L 18 12.785156 A 5.5 5.5 0 0 0 22 7.5 A 5.5 5.5 0 0 0 16.5 2 z M 16.5 4 A 3.5 3.5 0 0 1 20 7.5 A 3.5 3.5 0 0 1 18 10.658203 L 18 10 C 18 8.338 16.662 7 15 7 L 13.041016 7 A 3.5 3.5 0 0 1 16.5 4 z M 9 9 L 15 9 C 15.554 9 16 9.446 16 10 L 16 15 C 16 15.554 15.554 16 15 16 L 14 16 L 14 11 L 8 11 L 8 10 C 8 9.446 8.446 9 9 9 z M 4 13 L 12 13 L 12 20 L 4 20 L 4 13 z "
     />
</svg>
